X: 21611
T: KILLIECRANKIE -- With Variations
Q: "Moderato."
N: Bowing and Fingering arranged by W.B. Laybourn
R: march, reel
B: K\"ohler's Violin Repository, v.2, 1885 p.161
F: http://www.archive.org/details/klersviolinrepos02rugg
Z: 2012 John Chambers <jc:trillian.mit.edu>
N: Broke most of the (few) long beams, for readability.
N: In bar 27, the sharps really were all printed.
M: C|
L: 1/16
K: D
u(FG) |\
(A3B) A2FG (A3B) A2FG | AGFE DEFG (A3B) A2dc | B3d B2B,2 BABd cBAB | dfeg {g}fefd B6 (fa) |
b2af a2fe (gf)ed (fe)dc | edcB AFdF (A3B) A2dc | BABc dcde fefa gfed | BABc dBAF (TE4{DE}D2) :|
|: (fg) |\
(a3b) a2fg (a3b) a2fg | agfe defg (a3b) a2d'c' | (b3d') b2a2 (b3c') b2(d'b) | afef defa (b3c') d'4 |
b2gb a2fa g2eg f2df | fedB BAdF (A3B) A2dc | BABc dcde fefa gfed | BABc dBAF (TE4{DE}D2) :|
|: u(FG) |\
(A3B) (AF)dF AFdF AGFE | DEFG AFdF (A3B) A2dc | (Bd)cd (Bd)Ad (Bd)cd (Bd)Ac | dfeg fedc B6 (fa) |
b2af a2fe (gf)ed (fe)dc | edcB AFdF (A3B) A2dc | BABc dcde fefa gfed | BABc d2F2 (TE4{DE}D2) :|
|: u(fg) |\
af (g/f/e/f/) af (g/f/e/f/) (af)bg af (g/f/e/f/) | agfe defg afad' a2(bc') |\
d'b (c'/b/^a/b/) d'b  (c'/b/^a/b/) d'b (c'/b/^a/b/) d'b  (c'/b/^a/b/) | =afef defa (b3c') d'4 |
bagb agfa gfeg fedf | fedc BAGF (A3B) A2dc | BABc dcde fefa gfed | BABc dBAF (TE4{DE}"^Fine."D2) :|

%%sep 2 1 500

